Adwaita++-Dark/actions/16/code-variable.svg

<svg height="16" viewBox="0 0 16 16" width="16" xmlns="http://www.w3.org/2000/svg">
  <path d="m1 1.0039062v7h14v-7zm0 8v3.9999998h3v-3.9999998zm5 0v5.9999998h3v-5.9999998zm5 0v2.9999998h4v-2.9999998z" fill="#e6ddff"/>
</svg>

<svg xmlns="http://www.w3.org/2000/svg" width="16" height="16" viewBox="0 0 16 16">
 <defs>
  <style id="current-color-scheme" type="text/css">
   .ColorScheme-Text { color:#E6DDFF; } .ColorScheme-Highlight { color:#4285f4; }
  </style>
 </defs>
 <path style="fill:currentColor" class="ColorScheme-Text" d="M 1 1.0039062 L 1 8.0039062 L 15 8.0039062 L 15 1.0039062 L 1 1.0039062 z M 1 9.0039062 L 1 13.003906 L 4 13.003906 L 4 9.0039062 L 1 9.0039062 z M 6 9.0039062 L 6 15.003906 L 9 15.003906 L 9 9.0039062 L 6 9.0039062 z M 11 9.0039062 L 11 12.003906 L 15 12.003906 L 15 9.0039062 L 11 9.0039062 z"/>
</svg>
